!!!COM: Palestrina, Giovanni Perluigi da
!!!OPR: Missa Hodie Christus Natus Est
!!!OMD: Credo
!!!OTL: Et iterum
**kern	**kern	**kern	**kern
*Ibass	*Icalto	*Icant	*Icant
!Bassus	!Altus	!Cantus 2	!Cantus 1
*clefF4	*clefG2	*clefG2	*clefG2
*k[]	*k[]	*k[]	*k[]
*G:mix	*G:mix	*G:mix	*G:mix
*M4/2	*M4/2	*M4/2	*M4/2
=104	=104	=104	=104
1r	1d	1r	1r
1G	[1g	1b	1dd
=105	=105	=105	=105
1.c	2g]	1.cc	1.ee
.	2g	.	.
.	2g	.	.
2c	2a	2cc	2ee
=106	=106	=106	=106
2c	1.g	2cc	2ee
2B	.	2dd	2dd
2c	.	2ee	2cc
2c	2g	2ee	2cc
=107	=107	=107	=107
0G	1g	2dd	1.b
.	.	2g	.
.	2r	[1dd	.
.	2d	.	2b
=108	=108	=108	=108
0r	1.g	2dd]	1.b
.	.	2dd	.
.	.	2dd	.
.	2g	2ee	2b
=109	=109	=109	=109
0r	2g	2dd	2b
.	2.a	2.cc	2cc
.	.	.	1dd
.	4g	4b	.
.	[2g	4b	.
.	.	8a	.
.	.	8g	.
=110	=110	=110	=110
1D	2g]	1a	1dd
.	2f#	.	.
[1G	4g	[1g	[1b
.	4f	.	.
.	4e	.	.
.	4d	.	.
=111	=111	=111	=111
2G]	2e	1g]	1b]
2G	4d	.	.
.	4c	.	.
2G	2B	1r	1r
[2A	[2c	.	.
=112	=112	=112	=112
2A]	2c]	0r	0r
1G	2B	.	.
.	1A	.	.
2F#	.	.	.
=113	=113	=113	=113
[0G	0B	1r	2r
.	.	.	2dd
.	.	2r	4g
.	.	.	4a
.	.	2dd	4b
.	.	.	4cc
=114	=114	=114	=114
1G]	2r	4g	4dd
.	.	4a	4cc
.	2g	4b	4dd
.	.	4cc	4ee
1r	4d	4dd	1ff
.	4e	4cc	.
.	4f	4a	.
.	4g	4b	.
=115	=115	=115	=115
2r	4a	4cc	4ee
.	4b	4dd	4dd
2c	2.cc	4ee	4cc
.	.	8dd	4b
.	.	8ee	.
4F	.	2ff	4a
4G	4b	.	4b
4A	2a	[2ee	[2cc
4B	.	.	.
=116	=116	=116	=116
2c	2.g	2ee]	4cc]
.	.	.	4g
2G	.	2.dd	2b-
.	4f	.	.
2.A	1e	.	[1a
.	.	4cc	.
.	.	[2cc	.
4G	.	.	.
=117	=117	=117	=117
2.F	1.A	4cc]	2a]
.	.	4b	.
.	.	2.a	2f
4E	.	.	.
2D	.	.	2.f
.	.	4g	.
2D	2B	[2f	.
.	.	.	4g
=118	=118	=118	=118
1C	1c	2f]	2a
.	.	2e	4g
.	.	.	4f
[1c	2r	2e	2g
.	[2g	[2ee	[2cc
=119	=119	=119	=119
2c]	2g]	2ee]	2cc]
2A	2a	2ee	2cc
1c	1g	1ee	1cc
=120	=120	=120	=120
0G	2.g	2dd	1.b
.	.	2g	.
.	8f	.	.
.	8e	.	.
.	1d	4b	.
.	.	4a	.
.	.	4b	2g
.	.	4cc	.
=121	=121	=121	=121
0r	2r	1dd	4b
.	.	.	4a
.	1g	.	4b
.	.	.	4cc
.	.	2b	2dd
.	2e	[2cc	[2ee
=122	=122	=122	=122
0r	1g	4cc]	4ee]
.	.	4b	4dd
.	.	4b	1gg
.	.	8a	.
.	.	8g	.
.	2d	1a	.
.	2d	.	2ff#
=123	=123	=123	=123
2r	4e	1g	2gg
.	4d	.	.
1c	4e	.	1ee
.	4f	.	.
.	2g	1r	.
2A	[2a	.	2ee
=124	=124	=124	=124
1c	4a]	1r	1ee
.	4g	.	.
.	1cc	.	.
1G	.	2r	1dd
.	2b	2g	.
=125	=125	=125	=125
2r	1cc	4a	1r
.	.	4g	.
2F	.	4a	.
.	.	4b	.
4A	1a	[1cc	2r
4G	.	.	.
4A	.	.	2cc
4B	.	.	.
=126	=126	=126	=126
1.c	1g	2cc]	4ee
.	.	.	4dd
.	.	2cc	4ee
.	.	.	4ff
.	2e	2.ee	2gg
2c	[2g	.	2g
.	.	4dd	.
=127	=127	=127	=127
1A	4g]	1cc	1a
.	8f#	.	.
.	8e	.	.
.	2f#	.	.
[1G	1g	1b	1dd
=128	=128	=128	=128
1G]	2r	2r	2r
.	2g	2b	2dd
1r	2g	2b	2dd
.	[2c	[2cc	[2ee
=129	=129	=129	=129
0r	4c]	4cc]	4ee]
.	4c	4cc	4ee
.	2c	2cc	2ee
.	2g	2b	2dd
.	2a	2a	2cc
=130	=130	=130	=130
0r	2.g	2.dd	2.b
.	4g	4dd	4b
.	2g	2dd	2b
.	2f#	2dd	2a
=131	=131	=131	=131
0r	2g	1dd	2b
.	2f#	.	2a
.	2g	1ee	2b
.	[2a	.	[2cc
=132	=132	=132	=132
0r	4a]	1a	4cc]
.	4g	.	4b
.	2f	.	1a
.	1e	1b	.
.	.	.	2g#
=133	=133	=133	=133
1A	2r	2cc#	2a
.	2e	2cc#	2a
2D	2f#	2dd	2a
[2G	[2g	[2dd	[2b
=134	=134	=134	=134
2G]	2g]	2dd]	2b]
2E	2g	2ee	2cc
2.D	2.a	2.ff	2.dd
4D	4b	4ff	4dd
=135	=135	=135	=135
2C	2cc	2ee	1g
1c	1g	1ee	.
.	.	.	2a
2d	2f	[2dd	2a
=136	=136	=136	=136
1A	1e	2dd]	1a
.	.	2cc#	.
1D	1f#	1dd	1a
=137	=137	=137	=137
2r	2r	2r	2r
1G	1g	1dd	1b
2G	2g	2dd	2b
=138	=138	=138	=138
1G	1g	1b	1dd
2G	2g	2b	2dd
2C	2g	2cc	2ee
=139	=139	=139	=139
2F	2.a	2cc	2.ff
2D	.	2dd	.
.	4a	.	4ff
2A	2a	2cc	2ee
[2c	[2g	[2ee	[2cc
=140	=140	=140	=140
2c]	2g]	2ee]	2cc]
2G	2g	2dd	2b
2A	1e	2cc	2a
2A	.	2cc	2a
=141	=141	=141	=141
0F	1a	2cc	1.cc
.	.	4b	.
.	.	4a	.
.	[1a	2cc	.
.	.	2dd	4b
.	.	.	4a
=142	=142	=142	=142
1E	2a]	1ee	2cc
.	2g#	.	2b
1A	2r	2r	1cc
.	2a	2ee	.
=143	=143	=143	=143
2c	2g	2cc	2ee
2G	2g	2b	2dd
2A	1e	2a	2cc
2A	.	2a	2cc
=144	=144	=144	=144
0F	1a	1.cc	2cc
.	.	.	4b
.	.	.	4a
.	[1a	.	2cc
.	.	4b	2dd
.	.	4a	.
=145	=145	=145	=145
1E	2a]	2cc	1ee
.	2g#	2b	.
2r	2r	2r	2r
[2A	[2a	[2cc#	[2ee
=146	=146	=146	=146
2A]	2a]	2cc#]	2ee]
2A	2a	2cc#	2ee
2A	2a	2ee	2cc#
2d	2a	2ff#	2dd
=147	=147	=147	=147
2G	2b	4gg	2dd
.	.	4ff	.
1c	2cc	4ee	1ee
.	.	4dd	.
.	1g	2cc	.
2B	.	2dd	[2dd
=148	=148	=148	=148
1c	0g	1ee	2dd]
.	.	.	1cc
1G	.	1dd	.
.	.	.	2b
=149	=149	=149	=149
0C	0g	0ee	0cc
*-	*-	*-	*-
!!!CDT: 1525/^1526/-1594/2/2
!!!OCY: Italia
!!!AGN: Mass (Parody)
!!!AST: renaissance, vocal
!!!ASW: Motet 1575 (Palestrina)
!!!PWK: Masses, Book 8vce
!!!RNB: Cadence finals: C,D
!!!YOR: Le Opere Complete, v. 30, p. 59
!!!YOO: Rome, Italy: Fratelli Scalera
!!!END: 1992//
!!!EED: John Miller
!!!YEC: Copyright 2000, John Miller
!!!YEN: United States of America
!!!YEM: Rights to all derivative electronic formats reserved.
!!!YEM: Refer to licensing agreement for further details.
!!!YEM: This file must be accompanied by the licensing agreement.
!!!YEM: A copy of the licensing agreement may be found at http://www.music-cog.ohio-state.edu/HumdrumDatabases/Palestrina/license.txt
!!!EMD: converted to Humdrum by Bret Aarden
